subcellular/src/assets/icons/svg/user-social.svg

<svg xmlns="http://www.w3.org/2000/svg" width="32" height="32" viewBox="0 0 32 32"><path fill="#FFF" d="M15.095 13.899a4.826 4.826 0 1 0 9.648-.002 4.826 4.826 0 0 0-9.648.002m9.65 6.031h-9.65a4.826 4.826 0 0 0-4.825 4.824v3.533h19.298v-3.533a4.822 4.822 0 0 0-4.823-4.824"/><path fill="#C8C8C8" d="M30 28.718H9.84v-3.964a5.261 5.261 0 0 1 5.255-5.256h9.65A5.26 5.26 0 0 1 30 24.754v3.964zm-19.298-.862H29.14v-3.103a4.4 4.4 0 0 0-4.394-4.393h-9.651a4.398 4.398 0 0 0-4.393 4.393v3.103zm9.218-8.703a5.26 5.26 0 0 1-5.255-5.255c0-2.899 2.356-5.256 5.255-5.256s5.256 2.357 5.256 5.256a5.26 5.26 0 0 1-5.256 5.255zm0-9.649c-2.423 0-4.394 1.972-4.394 4.395s1.971 4.394 4.394 4.394 4.394-1.972 4.394-4.394a4.4 4.4 0 0 0-4.394-4.395z"/><path fill="#FFF" d="M10.96 12.243a4.48 4.48 0 1 0 0-8.96 4.48 4.48 0 0 0 0 8.96z"/><path fill="#B4B4B4" d="M10.96 4.146a3.623 3.623 0 0 1 3.619 3.617 3.623 3.623 0 0 1-3.619 3.616 3.622 3.622 0 0 1-3.618-3.616 3.623 3.623 0 0 1 3.618-3.619m0-.861a4.479 4.479 0 1 0 0 8.958 4.48 4.48 0 1 0 0-8.958z"/><path fill="#FFF" d="M9.306 24.752a5.797 5.797 0 0 1 5.789-5.79h2.025a5.793 5.793 0 0 1-2.965-5.599H6.48A4.479 4.479 0 0 0 2 17.844v8.839h7.307v-1.931z"/><path fill="#B4B4B4" d="M13.277 14.225a6.662 6.662 0 0 0 1.499 3.885 6.657 6.657 0 0 0-6.333 6.643v1.069H2.861v-7.98a3.624 3.624 0 0 1 3.619-3.619h6.797m.88-.861H6.48A4.478 4.478 0 0 0 2 17.842v8.84h7.307v-1.929a5.8 5.8 0 0 1 5.789-5.791h2.025a5.792 5.792 0 0 1-2.964-5.6z"/></svg>

<?xml version="1.0" encoding="utf-8"?>
<!-- Generator: Adobe Illustrator 14.0.0, SVG Export Plug-In . SVG Version: 6.00 Build 43363)  -->
<!DOCTYPE svg PUBLIC "-//W3C//DTD SVG 1.1//EN" "http://www.w3.org/Graphics/SVG/1.1/DTD/svg11.dtd">
<svg version="1.1" id="Layer_1" xmlns="http://www.w3.org/2000/svg" xmlns:xlink="http://www.w3.org/1999/xlink" x="0px" y="0px"
	 width="32px" height="32px" viewBox="0 0 32 32" enable-background="new 0 0 32 32" xml:space="preserve">
<g>
	<g>
		<path fill="#FFFFFF" d="M15.095,13.899c0,2.663,2.161,4.825,4.825,4.825c2.665,0,4.825-2.162,4.825-4.825
			c0-2.667-2.16-4.826-4.825-4.826C17.257,9.073,15.095,11.232,15.095,13.899 M24.745,19.93h-9.65c-2.665,0-4.825,2.162-4.825,4.824
			v3.533h19.298v-3.533C29.569,22.088,27.409,19.93,24.745,19.93"/>
		<path fill="#C8C8C8" d="M30,28.718H9.84v-3.964c0-2.898,2.357-5.256,5.255-5.256h9.65c2.898,0,5.255,2.357,5.255,5.256V28.718
			L30,28.718z M10.702,27.856h18.438v-3.103c0-2.422-1.972-4.393-4.394-4.393h-9.651c-2.422,0-4.393,1.971-4.393,4.393V27.856
			L10.702,27.856z M19.92,19.153c-2.898,0-5.255-2.356-5.255-5.255c0-2.899,2.356-5.256,5.255-5.256s5.256,2.357,5.256,5.256
			C25.176,16.797,22.818,19.153,19.92,19.153L19.92,19.153z M19.92,9.504c-2.423,0-4.394,1.972-4.394,4.395s1.971,4.394,4.394,4.394
			s4.394-1.972,4.394-4.394C24.314,11.476,22.343,9.504,19.92,9.504L19.92,9.504z"/>
	</g>
	<path fill="#FFFFFF" d="M10.96,12.243c2.473,0,4.48-2.005,4.48-4.478c0-2.475-2.007-4.48-4.48-4.48c-2.475,0-4.48,2.005-4.48,4.48
		C6.48,10.237,8.487,12.243,10.96,12.243z"/>
	<path fill="#B4B4B4" d="M10.96,4.146c1.995,0,3.619,1.623,3.619,3.617c0,1.992-1.624,3.616-3.619,3.616
		c-1.995,0-3.618-1.623-3.618-3.616c0-1.994,1.622-3.619,3.618-3.619 M10.96,3.283c-2.475,0-4.48,2.005-4.48,4.48
		c0,2.473,2.005,4.478,4.48,4.478c2.473,0,4.48-2.005,4.48-4.478C15.44,5.288,13.433,3.283,10.96,3.283z"/>
	<path fill="#FFFFFF" d="M9.306,24.752c0-3.191,2.597-5.79,5.789-5.79h2.025c-1.782-0.988-2.99-2.89-2.99-5.064
		c0-0.181,0.011-0.36,0.025-0.535H6.48c-2.475,0-4.48,2.004-4.48,4.481v8.839h7.307V24.752z"/>
	<path fill="#B4B4B4" d="M13.277,14.225c0.072,1.438,0.607,2.794,1.499,3.885c-3.52,0.164-6.333,3.082-6.333,6.643v1.069H2.861
		v-7.98c0-1.994,1.623-3.619,3.619-3.619h6.797 M14.157,13.362H6.48c-2.475,0-4.48,2.004-4.48,4.48v8.84h7.307v-1.929
		c0-3.19,2.598-5.791,5.789-5.791h2.025c-1.781-0.987-2.99-2.889-2.99-5.063C14.13,13.718,14.141,13.54,14.157,13.362L14.157,13.362
		z"/>
</g>
</svg>
